static/img/mail-orange.svg

<svg height="8.756" viewBox="0 0 13.275 8.756" width="13.275" xmlns="http://www.w3.org/2000/svg"><path d="m3.565 19a.573.573 0 0 0 -.565.565v7.626a.573.573 0 0 0 .565.565h12.145a.573.573 0 0 0 .565-.565v-7.626a.573.573 0 0 0 -.565-.565zm.816.847h10.513l-5.256 4.653zm-.534.658 2.926 2.6-2.926 3.142zm11.581 0v5.742l-2.928-3.147zm-8.019 3.156 1.946 1.726a.425.425 0 0 0 .565 0l1.946-1.726 3.023 3.248h-10.503z" fill="#ff6c37" transform="translate(-3 -19)"/></svg>

<svg xmlns="http://www.w3.org/2000/svg" width="13.275" height="8.756" viewBox="0 0 13.275 8.756">
  <path id="np_mail_1797349_000000" d="M3.565,19A.573.573,0,0,0,3,19.565v7.626a.573.573,0,0,0,.565.565H15.71a.573.573,0,0,0,.565-.565V19.565A.573.573,0,0,0,15.71,19Zm.816.847H14.894L9.638,24.5Zm-.534.658,2.926,2.6L3.847,26.247Zm11.581,0v5.742L12.5,23.1ZM7.409,23.661l1.946,1.726a.425.425,0,0,0,.565,0l1.946-1.726,3.023,3.248H4.386Z" transform="translate(-3 -19)" fill="#ff6c37"/>
</svg>
